build/img/logo/calendso-white.svg

<?xml version="1.0" encoding="UTF-8"?>
<svg width="567px" height="175px" viewBox="0 0 567 175" version="1.1" xmlns="http://www.w3.org/2000/svg" xmlns:xlink="http://www.w3.org/1999/xlink">
    <title>Group</title>
    <g id="Page-1" stroke="none" stroke-width="1" fill="none" fill-rule="evenodd">
        <g id="Group">
            <g id="calendso-white" transform="translate(0.000000, 34.000000)" fill-rule="nonzero">
                <path d="M178.41,87.12 C173.510031,87.1653867 168.683486,85.9277227 164.41,83.53 C160.235963,81.1796196 156.795218,77.7181064 154.47,73.53 C149.690193,64.719879 149.690193,54.090121 154.47,45.28 C156.810273,41.0828994 160.272899,37.6202733 164.47,35.28 C168.740166,32.8718123 173.567772,31.6269795 178.47,31.67 C184.421956,31.5416743 190.244097,33.418989 195,37 C199.666667,40.5533333 202.953333,45.69 204.86,52.41 L193.68,52.41 C192.401002,49.450361 190.248232,46.9521704 187.51,45.25 C184.905302,43.6306706 181.897008,42.7780897 178.83,42.79 C176.017022,42.7875211 173.246267,43.4742014 170.76,44.79 C168.218539,46.1259528 166.094175,48.1361413 164.62,50.6 C161.594217,55.9382425 161.522464,62.4564429 164.43,67.86 C165.811224,70.3251481 167.805604,72.3918635 170.22,73.86 C172.622316,75.3444765 175.396169,76.117688 178.22,76.09 C185.45,76.09 190.59,72.8 193.59,66.2 L204.94,66.2 C203.83473,70.3979691 201.869935,74.3207477 199.17,77.72 C196.710768,80.7423796 193.572159,83.1408799 190.01,84.72 C186.351748,86.2985136 182.404124,87.0955318 178.42,87.06 L178.41,87.12 Z M250.48,81 C245.852926,85.0702331 239.871466,87.2637915 233.71,87.15 C228.809578,87.1991204 223.982086,85.9612136 219.71,83.56 C215.580372,81.1851746 212.177914,77.7273922 209.87,73.56 C207.405791,69.107478 206.14758,64.0884213 206.22,59 C206.169206,51.7624039 209.015695,44.8052213 214.125115,39.6788958 C219.234534,34.5525704 226.182276,31.6831141 233.42,31.71 C239.825898,31.5362945 246.064958,33.7658043 250.91,37.96 L250.91,32.72 L262.41,32.72 L262.41,86.07 L250.48,86.07 L250.48,81 Z M234.34,42.66 C231.387209,42.6280836 228.479777,43.3877453 225.92,44.86 C223.422732,46.2917777 221.351778,48.3627321 219.92,50.86 C218.442569,53.4003406 217.675773,56.2913701 217.7,59.23 C217.544373,63.756317 219.246005,68.1494908 222.41,71.39 C225.617958,74.5770394 230.000726,76.2961266 234.52,76.14 C237.424346,76.174176 240.283214,75.4171119 242.79,73.95 C245.262308,72.5060292 247.310949,70.4366949 248.73,67.95 C251.65198,62.6600083 251.65198,56.2399917 248.73,50.95 C247.300547,48.4509546 245.229045,46.3794529 242.73,44.95 C240.181844,43.4650381 237.279098,42.6978836 234.33,42.73 L234.34,42.66 Z M272.91,13.79 L282.58,13.79 L282.58,86 L272.91,86 L272.91,13.79 Z M300.68,64.15 C301.187088,66.4420106 302.213432,68.5870705 303.68,70.42 C305.114277,72.2043075 306.951185,73.6231136 309.04,74.56 C311.239288,75.5513213 313.627727,76.0528934 316.04,76.03 C318.843618,76.1304729 321.627918,75.5289266 324.14,74.28 C326.501956,72.8712569 328.424015,70.8314495 329.69,68.39 L341.56,68.39 C338.84,74.8833333 335.386667,79.63 331.2,82.63 C326.756102,85.7077916 321.44324,87.2813239 316.04,87.12 C311.202183,87.1752271 306.437607,85.9357469 302.24,83.53 C298.134181,81.1574882 294.76355,77.6968816 292.5,73.53 C290.136263,69.1998871 288.930681,64.3327808 289,59.4 C288.94064,54.479846 290.149465,49.6273269 292.51,45.31 C294.782072,41.1327219 298.171877,37.6702038 302.3,35.31 C310.920651,30.4656591 321.450964,30.4998238 330.04,35.4 C334.128617,37.8465404 337.445299,41.3954249 339.61,45.64 C341.808379,49.9759915 342.926766,54.7788818 342.87,59.64 C342.87,60.64 342.77,62.11 342.58,64.15 L300.68,64.15 Z M316.1,42.53 C312.681597,42.4452542 309.327651,43.469681 306.54,45.45 C303.835698,47.4156596 301.870493,50.2331584 300.96,53.45 L331.14,53.45 C330.206695,50.2413688 328.242048,47.4297094 325.55,45.45 C322.799139,43.4793725 319.483037,42.4547146 316.1,42.53 L316.1,42.53 Z M385.73,56.26 C385.73,51.5933333 384.73,48.1066667 382.73,45.8 C380.73,43.45 377.84,42.29 374.05,42.29 C371.737693,42.2876581 369.478763,42.9848587 367.57,44.29 C365.54747,45.6360733 363.907658,47.4825852 362.81,49.65 C361.599565,51.9381375 360.977543,54.4915213 361,57.08 L361,86 L349.79,86 L349.79,32.72 L360.25,32.72 L360.25,37.48 C364.196948,33.5800295 369.574364,31.4753516 375.12,31.66 C378.994047,31.6196086 382.802866,32.6583776 386.12,34.66 C389.438823,36.6393913 392.164048,39.4751452 394.01,42.87 C395.947451,46.4082027 396.93941,50.3863721 396.89,54.42 L396.89,86 L385.69,86 L385.69,56.26 L385.73,56.26 Z M447.54,81.17 C445.187079,83.1067578 442.508801,84.610115 439.63,85.61 C436.62169,86.6406202 433.4598,87.1512571 430.28,87.12 C425.445239,87.1723331 420.688953,85.8959189 416.53,83.43 C412.43739,80.9965779 409.062826,77.5219509 406.75,73.36 C404.358221,69.0632713 403.12777,64.2172915 403.18,59.3 C403.08315,54.1970371 404.273081,49.1518694 406.64,44.63 C408.913331,40.4173598 412.299779,36.9098434 416.43,34.49 C420.719851,31.9964884 425.608737,30.720676 430.57,30.8 C433.625615,30.7816886 436.66433,31.2543777 439.57,32.2 C442.379756,33.0998726 445.012113,34.4803377 447.35,36.28 L447.35,13.84 L458.65,13.84 L458.65,86 L447.55,86 L447.55,81.17 L447.54,81.17 Z M431.24,42 C428.287579,41.9665724 425.38127,42.7337551 422.83,44.22 C420.327963,45.645535 418.255535,47.7179634 416.83,50.22 C415.362607,52.8063238 414.610176,55.736664 414.65,58.71 C414.488787,63.3085079 416.186524,67.7781361 419.36,71.11 C422.526248,74.3345716 426.903904,76.0769224 431.42,75.91 C434.346436,75.9454168 437.224585,75.1626712 439.73,73.65 C442.218559,72.1651692 444.268363,70.0463486 445.67,67.51 C448.59037,62.1592013 448.59037,55.6907987 445.67,50.34 C442.730073,45.147162 437.207137,41.9551116 431.24,42 Z M486.68,87.13 C482.928946,87.1973669 479.214944,86.3785048 475.84,84.74 C472.73327,83.1706774 470.143612,80.740703 468.38,77.74 C466.469443,74.4063305 465.437153,70.6419156 465.38,66.8 L476.38,66.8 C476.406764,69.4910921 477.517084,72.0578053 479.46,73.92 C481.575647,75.6598338 484.264308,76.5477339 487,76.41 C488.810919,76.45 490.614846,76.1724726 492.33,75.59 C493.613941,75.183915 494.759862,74.4291995 495.64,73.41 C496.347263,72.570016 496.736639,71.5080813 496.74,70.41 C496.816949,69.2158919 496.363225,68.0486487 495.5,67.22 C494.976059,66.7647134 494.398445,66.3751595 493.78,66.06 C493.081304,65.7281032 492.355279,65.4570986 491.61,65.25 C489.79,64.81 487.74,64.39 485.46,63.96 C483.7,63.71 482,63.38 480.36,62.96 C478.72,62.54 476.89,61.96 475.36,61.37 C474.536666,61.1220523 473.744745,60.7797817 473,60.35 L472,59.64 C471.627709,59.2747544 471.226392,58.9403235 470.8,58.64 C470.12161,58.1260473 469.52486,57.5124404 469.03,56.82 C468.459451,55.9943097 467.960949,55.1210942 467.54,54.21 C466.630387,52.192587 466.202447,49.9912634 466.29,47.78 C466.259563,44.7326193 467.209638,41.7561834 469,39.29 C470.829727,36.7755302 473.322569,34.8193417 476.2,33.64 C479.454396,32.2676361 482.958481,31.58657 486.49,31.64 C490.073806,31.5769344 493.619131,32.3869021 496.82,34 C499.794904,35.5066173 502.268363,37.8445924 503.94,40.73 C505.735056,43.9023128 506.678965,47.4850316 506.68,51.13 L496,51.13 C495.86,48.13 494.95,45.91 493.31,44.4 C491.67,42.89 489.31,42.14 486.31,42.14 C483.31,42.14 481.07,42.65 479.55,43.68 C478.162192,44.4644769 477.29441,45.9260056 477.27,47.52 C477.16338,48.5091018 477.534839,49.4897545 478.27,50.16 C478.829925,50.6309754 479.448383,51.0275951 480.11,51.34 C480.751577,51.6297853 481.42196,51.8510119 482.11,52 C482.92,52.21 483.8,52.43 484.8,52.62 L487.92,53.15 C491.305853,53.6248274 494.649382,54.3637473 497.92,55.36 C500.556262,56.1517522 502.900634,57.7030725 504.66,59.82 C506.504716,62.2308806 507.553219,65.1562039 507.66,68.19 L507.76,70.01 C507.816121,73.2544765 506.850582,76.4344566 505,79.1 C503.135736,81.769871 500.547505,83.8515584 497.54,85.1 C494.084801,86.5215741 490.375688,87.2225624 486.64,87.16 L486.68,87.13 Z M563.29,73.58 C560.883297,77.7914066 557.355954,81.2529797 553.1,83.58 C548.559619,86.0068198 543.47775,87.2420203 538.33,87.17 C533.423007,87.2205067 528.590975,85.9641782 524.33,83.53 C520.155817,81.1676807 516.6788,77.7458541 514.25,73.61 C511.768303,69.4265903 510.478408,64.6439497 510.52,59.78 C510.411259,54.6924527 511.657152,49.6674692 514.13,45.22 C516.534957,40.9899788 520.084142,37.5239784 524.37,35.22 C528.757367,32.8206043 533.689822,31.5943795 538.69,31.66 C543.691725,31.6336904 548.618497,32.8757049 553.01,35.27 C557.256498,37.5823096 560.795672,41.0039715 563.25,45.17 C565.694575,49.5103082 566.9502,54.4189762 566.89,59.4 C566.94388,64.3612466 565.688322,69.248952 563.25,73.57 L563.29,73.58 Z M538.73,42.29 C535.703799,42.2645523 532.725295,43.0445547 530.1,44.55 C527.49505,46.0024379 525.326602,48.125997 523.82,50.7 C522.295616,53.2718748 521.500495,56.2103668 521.52,59.2 C521.494963,63.7944191 523.369543,68.194977 526.7,71.36 C529.893436,74.7537904 534.340026,76.687876 539,76.7106631 C542.008514,76.7294359 544.962719,75.908631 547.53,74.34 C550.102483,72.7919572 552.233984,70.6088046 553.72,68 C555.229973,65.3865664 556.016925,62.4182391 556,59.4 C556.029206,56.3798844 555.222833,53.4104942 553.67,50.82 C552.147231,48.2336208 549.975627,46.0895932 547.37,44.6 C544.749885,43.0676377 541.765246,42.2696614 538.73,42.29 Z" id="Shape" fill="#000000"></path>
                <rect id="Rectangle" fill="#000000" x="19.35" y="0" width="10.11" height="18.5" rx="5.05"></rect>
                <rect id="Rectangle" fill="#000000" x="68.31" y="0" width="10.11" height="18.5" rx="5.05"></rect>
                <path d="M11,9.1 L14,9.1 L14,13.45 C14.0219632,19.1830167 18.6669649,23.823552 24.4,23.84 L24.4,23.84 C30.1313995,23.8235225 34.7735225,19.1813995 34.79,13.45 L34.79,9.1 L63,9.1 L63,13.45 C63.016373,19.1697516 67.6403197,23.8070881 73.36,23.84 L73.36,23.84 C79.0913995,23.8235225 83.7335225,19.1813995 83.75,13.45 L83.75,9.1 L86.75,9.1 C92.8251322,9.1 97.75,14.0248678 97.75,20.1 L97.75,95.91 C97.75,101.985132 92.8251322,106.91 86.75,106.91 L48.54,106.91 L0,58.33 L0,20.07 C0,13.9948678 4.92486775,9.07 11,9.07 L11,9.1 Z M68.21,33.6398206 L29.31,33.6398206 C26.5485763,33.6398206 24.31,35.8785763 24.31,38.64 L24.31,77.54 C24.31,80.3014237 26.5485763,82.54 29.31,82.54 L61.1,82.54 L73.2401794,94.74 L73.2401794,38.67 C73.2480433,37.3335115 72.7206816,36.0494327 71.7756245,35.1043755 C70.8305673,34.1593184 69.5464885,33.6319567 68.21,33.6398206 Z" id="Shape" fill="#000000"></path>
                <polygon id="Path" fill="#2492EB" points="48.54 58.33 0 58.33 48.54 106.87"></polygon>
            </g>
            <rect id="Rectangle" fill="#D8D8D8" opacity="0" x="267" y="0" width="50" height="175"></rect>
        </g>
    </g>
</svg>

<svg id="Layer_1" data-name="Layer 1" xmlns="http://www.w3.org/2000/svg" viewBox="0 0 566.93 106.87"><defs><style>.cls-1,.cls-2{fill:#fff;}.cls-1,.cls-3{fill-rule:evenodd;}.cls-3{fill:#2492eb;}</style></defs><path class="cls-1" d="M178.41,87.12a28.08,28.08,0,0,1-14-3.59,25.91,25.91,0,0,1-9.94-10,29.62,29.62,0,0,1,0-28.25,25.88,25.88,0,0,1,10-10,28,28,0,0,1,14-3.61A26.53,26.53,0,0,1,195,37q7,5.33,9.86,15.41H193.68a15.82,15.82,0,0,0-6.17-7.16,16.32,16.32,0,0,0-8.68-2.46,17.22,17.22,0,0,0-8.07,2,15.63,15.63,0,0,0-6.14,5.81,17.85,17.85,0,0,0-.19,17.26,16.41,16.41,0,0,0,5.79,6,14.94,14.94,0,0,0,8,2.23c7.23,0,12.37-3.29,15.37-9.89h11.35a31.36,31.36,0,0,1-5.77,11.52,24.73,24.73,0,0,1-9.16,7,28.61,28.61,0,0,1-11.59,2.34ZM250.48,81a24.7,24.7,0,0,1-16.77,6.15,28,28,0,0,1-14-3.59,26.15,26.15,0,0,1-9.84-10A29.21,29.21,0,0,1,206.22,59a27.1,27.1,0,0,1,27.2-27.29,25.66,25.66,0,0,1,17.49,6.25V32.72h11.5V86.07H250.48V81ZM234.34,42.66a16.53,16.53,0,0,0-8.42,2.2,16.21,16.21,0,0,0-6,6,16.38,16.38,0,0,0-2.22,8.37,16.59,16.59,0,0,0,4.71,12.16,16.38,16.38,0,0,0,12.11,4.75,16,16,0,0,0,8.27-2.19,16.31,16.31,0,0,0,5.94-6,17.58,17.58,0,0,0,0-17,16.15,16.15,0,0,0-6-6,16.33,16.33,0,0,0-8.4-2.22Zm38.57-28.87h9.67V86h-9.67V13.79Zm27.77,50.36a15.34,15.34,0,0,0,3,6.27,14.48,14.48,0,0,0,5.36,4.14,16.65,16.65,0,0,0,7,1.47,16.84,16.84,0,0,0,8.1-1.75,14.78,14.78,0,0,0,5.55-5.89h11.87q-4.08,9.74-10.36,14.24a25.3,25.3,0,0,1-15.16,4.49,27.13,27.13,0,0,1-13.8-3.59,25.74,25.74,0,0,1-9.74-10A28.65,28.65,0,0,1,289,59.4a28.65,28.65,0,0,1,3.51-14.09,25.62,25.62,0,0,1,9.79-10,28.15,28.15,0,0,1,27.74.09,25.36,25.36,0,0,1,9.57,10.24,30.18,30.18,0,0,1,3.26,14c0,1-.1,2.47-.29,4.51ZM316.1,42.53a15.83,15.83,0,0,0-9.56,2.92,14.91,14.91,0,0,0-5.58,8h30.18a15.2,15.2,0,0,0-5.59-8,15.63,15.63,0,0,0-9.45-2.92Zm69.63,13.73q0-7-3-10.46c-2-2.35-4.89-3.51-8.68-3.51a11.46,11.46,0,0,0-6.48,2,14.08,14.08,0,0,0-4.76,5.36A15.6,15.6,0,0,0,361,57.08V86H349.79V32.72h10.46v4.76a20.2,20.2,0,0,1,14.87-5.82,20.87,20.87,0,0,1,11,3,21.54,21.54,0,0,1,7.89,8.21,23.45,23.45,0,0,1,2.88,11.55V86h-11.2V56.26Zm61.81,24.91a25.73,25.73,0,0,1-7.91,4.44,28,28,0,0,1-9.35,1.51,26.4,26.4,0,0,1-13.75-3.69,26.94,26.94,0,0,1-9.78-10.07,28.29,28.29,0,0,1-3.57-14.06,30.39,30.39,0,0,1,3.46-14.67,26.14,26.14,0,0,1,9.79-10.14,27.27,27.27,0,0,1,14.14-3.69,28.53,28.53,0,0,1,9,1.4,25.51,25.51,0,0,1,7.78,4.08V13.84h11.3V86h-11.1V81.17ZM431.24,42a16.34,16.34,0,0,0-8.41,2.22,16.05,16.05,0,0,0-6,6,16.75,16.75,0,0,0-2.18,8.49,17.11,17.11,0,0,0,4.71,12.4,16.07,16.07,0,0,0,12.06,4.8,15.71,15.71,0,0,0,8.31-2.26,16.37,16.37,0,0,0,5.94-6.14,17.92,17.92,0,0,0,0-17.17A16.44,16.44,0,0,0,431.24,42Zm55.44,45.13a23.84,23.84,0,0,1-10.84-2.39,18.14,18.14,0,0,1-7.46-7,22.68,22.68,0,0,1-3-10.94h11a10,10,0,0,0,3.08,7.12A11,11,0,0,0,487,76.41a15.51,15.51,0,0,0,5.33-.82,7.27,7.27,0,0,0,3.31-2.18,4.68,4.68,0,0,0,1.1-3,4.06,4.06,0,0,0-1.24-3.19,8.52,8.52,0,0,0-1.72-1.16,13.45,13.45,0,0,0-2.17-.81c-1.82-.44-3.87-.86-6.15-1.29-1.76-.25-3.46-.58-5.1-1s-3.47-1-5-1.59A11.16,11.16,0,0,1,473,60.35l-1-.71a9.64,9.64,0,0,0-1.2-1,8.44,8.44,0,0,1-1.77-1.82,17.51,17.51,0,0,1-1.49-2.61,14.27,14.27,0,0,1-1.25-6.43A14.21,14.21,0,0,1,469,39.29a16.77,16.77,0,0,1,7.2-5.65,25.49,25.49,0,0,1,10.29-2A22.09,22.09,0,0,1,496.82,34a17.22,17.22,0,0,1,7.12,6.73,21.13,21.13,0,0,1,2.74,10.4H496c-.14-3-1.05-5.22-2.69-6.73s-4-2.26-7-2.26-5.24.51-6.76,1.54a4.49,4.49,0,0,0-2.28,3.84,3.12,3.12,0,0,0,1,2.64,8.49,8.49,0,0,0,1.84,1.18,10,10,0,0,0,2,.66c.81.21,1.69.43,2.69.62l3.12.53a65.57,65.57,0,0,1,10,2.21,14,14,0,0,1,6.74,4.46,14.62,14.62,0,0,1,3,8.37l.1,1.82A15.47,15.47,0,0,1,505,79.1a17.09,17.09,0,0,1-7.46,6,27.44,27.44,0,0,1-10.9,2.06Zm76.61-13.55a26.23,26.23,0,0,1-10.19,10,30.43,30.43,0,0,1-14.77,3.59,27.65,27.65,0,0,1-14-3.64,27.26,27.26,0,0,1-10.08-9.92,26.66,26.66,0,0,1-3.73-13.83,28.7,28.7,0,0,1,3.61-14.56,25.87,25.87,0,0,1,10.24-10,29.05,29.05,0,0,1,14.32-3.56,29.59,29.59,0,0,1,14.32,3.61,26.71,26.71,0,0,1,10.24,9.9,28.3,28.3,0,0,1,3.64,14.23,28.21,28.21,0,0,1-3.64,14.17ZM538.73,42.29a17.06,17.06,0,0,0-8.63,2.26,16.7,16.7,0,0,0-6.28,6.15,16.46,16.46,0,0,0-2.3,8.5,16.65,16.65,0,0,0,5.18,12.16A17,17,0,0,0,539,76.71a16.16,16.16,0,0,0,8.53-2.37A17.52,17.52,0,0,0,553.72,68,17,17,0,0,0,556,59.4a16.38,16.38,0,0,0-2.33-8.58,17.24,17.24,0,0,0-6.3-6.22A16.89,16.89,0,0,0,538.73,42.29Z" transform="translate(0)"/><rect class="cls-2" x="19.35" width="10.11" height="18.5" rx="5.05"/><rect class="cls-2" x="68.31" width="10.11" height="18.5" rx="5.05"/><path class="cls-1" d="M11,9.1h3v4.35A10.43,10.43,0,0,0,24.4,23.84h0A10.42,10.42,0,0,0,34.79,13.45V9.1H63v4.35A10.42,10.42,0,0,0,73.36,23.84h0A10.42,10.42,0,0,0,83.75,13.45V9.1h3a11,11,0,0,1,11,11V95.91a11,11,0,0,1-11,11H48.54L0,58.33V20.07a11,11,0,0,1,11-11ZM68.21,33.64H29.31a5,5,0,0,0-5,5v38.9a5,5,0,0,0,5,5H61.1L73.24,94.74V38.67A5,5,0,0,0,68.21,33.64Z" transform="translate(0)"/><polygon class="cls-3" points="48.54 58.33 0 58.33 48.54 106.87 48.54 58.33"/></svg>
